metamac-portal-web-client/icons/search.svg

<?xml version="1.0" encoding="UTF-8" standalone="no"?>
<!-- Generator: Adobe Illustrator 15.0.0, SVG Export Plug-In . SVG Version: 6.00 Build 0)  -->

<svg
   xmlns:dc="http://purl.org/dc/elements/1.1/"
   xmlns:cc="http://creativecommons.org/ns#"
   xmlns:rdf="http://www.w3.org/1999/02/22-rdf-syntax-ns#"
   xmlns:svg="http://www.w3.org/2000/svg"
   xmlns="http://www.w3.org/2000/svg"
   xmlns:sodipodi="http://sodipodi.sourceforge.net/DTD/sodipodi-0.dtd"
   xmlns:inkscape="http://www.inkscape.org/namespaces/inkscape"
   version="1.1"
   id="Layer_1"
   x="0px"
   y="0px"
   width="48px"
   height="48px"
   viewBox="0 0 48 48"
   enable-background="new 0 0 48 48"
   xml:space="preserve"
   inkscape:version="0.48.2 r9819"
   sodipodi:docname="search.svg"><metadata
   id="metadata9"><rdf:RDF><cc:Work
       rdf:about=""><dc:format>image/svg+xml</dc:format><dc:type
         rdf:resource="http://purl.org/dc/dcmitype/StillImage" /></cc:Work></rdf:RDF></metadata><defs
   id="defs7" /><sodipodi:namedview
   pagecolor="#ffffff"
   bordercolor="#666666"
   borderopacity="1"
   objecttolerance="10"
   gridtolerance="10"
   guidetolerance="10"
   inkscape:pageopacity="0"
   inkscape:pageshadow="2"
   inkscape:window-width="1920"
   inkscape:window-height="1018"
   id="namedview5"
   showgrid="false"
   inkscape:zoom="4.9166667"
   inkscape:cx="24"
   inkscape:cy="24"
   inkscape:window-x="-8"
   inkscape:window-y="-8"
   inkscape:window-maximized="1"
   inkscape:current-layer="Layer_1" />
<path
   d="M 19.34375 0 C 8.67475 0 0 8.67875 0 19.34375 C 0 30.01175 8.67475 38.6875 19.34375 38.6875 C 23.19475 38.6875 26.7915 37.54375 29.8125 35.59375 L 41.78125 47.5625 C 42.17925 47.9625 42.82275 47.9625 43.21875 47.5625 L 47.5625 43.21875 C 47.9655 42.82075 47.9655 42.18225 47.5625 41.78125 L 35.59375 29.8125 C 37.54175 26.7925 38.6875 23.19875 38.6875 19.34375 C 38.6865 8.67875 30.00775 0 19.34375 0 z M 19.34375 6.15625 C 26.62375 6.15625 32.53125 12.06875 32.53125 19.34375 C 32.53125 26.62375 26.62375 32.53125 19.34375 32.53125 C 12.06375 32.53125 6.15625 26.62375 6.15625 19.34375 C 6.15625 12.06875 12.06375 6.15625 19.34375 6.15625 z "
   id="path3000" />
</svg>

<?xml version="1.0" encoding="utf-8"?>
<!-- Generator: Adobe Illustrator 15.0.0, SVG Export Plug-In . SVG Version: 6.00 Build 0)  -->
<!DOCTYPE svg PUBLIC "-//W3C//DTD SVG 1.1//EN" "http://www.w3.org/Graphics/SVG/1.1/DTD/svg11.dtd">
<svg version="1.1" id="Layer_1" xmlns="http://www.w3.org/2000/svg" xmlns:xlink="http://www.w3.org/1999/xlink" x="0px" y="0px"
	 width="48px" height="48px" viewBox="0 0 48 48" enable-background="new 0 0 48 48" xml:space="preserve">
<path d="M47.569,41.776L35.594,29.799c1.948-3.02,3.098-6.601,3.098-10.456C38.691,8.678,30.009,0,19.345,0
	C8.676,0,0,8.678,0,19.343c0,10.668,8.676,19.345,19.345,19.345c3.851,0,7.434-1.144,10.455-3.094L41.775,47.57
	c0.398,0.4,1.055,0.4,1.451,0l4.343-4.343C47.972,42.829,47.972,42.177,47.569,41.776 M6.145,19.343c0-7.275,5.92-13.2,13.2-13.2
	s13.199,5.925,13.199,13.2c0,7.28-5.919,13.202-13.199,13.202S6.145,26.623,6.145,19.343"/>
</svg>
